media/theme/theme-2/rundown_fitur.svg

<svg fill="none" height="83" viewBox="0 0 89 83" width="89" xmlns="http://www.w3.org/2000/svg" xmlns:xlink="http://www.w3.org/1999/xlink"><clipPath id="a"><path d="m0 0h89v83h-89z"/></clipPath><g clip-path="url(#a)"><path clip-rule="evenodd" d="m31.1693 53.9744.5152-2.1198h.2576c.3171 1.2795 1.0223 1.6906 1.5456 2.7721-.0574-.014-.2081.0106-.2576 0-.0395-.0108-.2944-.1438-.3864-.1631-.3458 1.7848-.809 3.9633-.9016 6.1965-.2693.1828-.2359.2338-.644.3261-1.4649-4.9594-5.5448-7.6776-9.7887-11.2515-3.0139-2.5381-4.7765-4.0004-7.7279-6.6856-.9843-.8954-4.48736-4.0685-5.40956-5.055-3.1454-3.3654-6.62091-6.4365-7.649366-12.6788-.6839216-4.1484-.173234-8.1213 1.209426-10.8026 1.95671-3.7945 4.06888-6.08 7.98552-7.33789.30538-.33803 3.34878-.59796 4.12158-.65226 1.8161.06523 3.1746.19699 4.6367.65226 1.245.43473 2.7478 1.19592 3.9928 1.63065 2.0877 1.61434 3.0516 2.29234 4.6368 4.40274.6697.892 1.2824 2.0885 2.0607 3.0982.0077-1.6357.0937-3.2694.2576-4.8919.2981-1.42127 1.2919-3.08714 2.0711-3.97047 1.9646-2.22714 4.4344-4.36541 7.2025-5.16116v-.16307c-1.1658.17432-4.4327 1.93901-5.0232 1.63065l-.1288-.16306c1.6761-1.26832 2.7982-2.10354 5.0078-2.712097 1.8829-.519036 4.6501-.635301 7.3569-.549203.9929.003261 1.9839.112356 2.9624.32613.8017.203668 1.5804.5323 2.3183.97839 6.0161 3.48323 9.5075 16.16629 5.9248 25.76429h-.2576c-.2333-.4159-.479-.4534-.644-.9784.3275-.2464.6227-.4827.7728-.9784-.3964-.158-3.9284-2.8905-3.9928-3.2613.6358-2.6379.4674-6.1949-.2576-8.6425-.528-1.7834-1.8234-4.17279-2.9623-5.21803-2.5823-2.36999-7.3859-3.90068-11.2055-1.95678-2.9849 1.51911-5.1664 4.13341-6.1824 8.15321-.3349 1.3261-.1854 6.1226-.9016 6.6857 0-.1088-.3864-1.1958-.3864-1.3045-.3808-.7288-.365-.8325-.644-1.4676-1.4864-.6513-1.0155-.3118-1.4167-.6523l-1.5456-1.9568c-1.0903-.6049-4.5545-2.3567-5.2808-2.7721-2.2153-1.2665-2.3627-1.2978-4.8943-2.4459-.9899-.4489-4.5209-.8615-5.4096-.1631.9241.0509 2.1051.2723 2.8336.6523v.3261c-2.4093.0083-5.0112.8866-6.43996 2.2829-.82715.8083-1.11592 2.4112-1.54559 3.7505-.339 1.0563-.76816 2.337-1.03039 3.4244-.46986 1.9479.67529 5.5376 1.15919 6.5226 1.38987 2.8285 3.70945 5.5115 5.79595 7.5009 1.2086 1.1529 2.2529 2.7661 3.4776 3.9136 2.9255 2.7413 5.7713 5.4415 8.7583 8.1532 1.5172 1.3774 4.4455 6.5971 6.0535 7.0118zm12.1071-52.66992v.32613l.7728.16306.1288-.16306v-.16307zm-34.90446 10.43612v.3262c.17761-.0184.35165-.0735.51519-.1631v-.1631zm47.01156 14.1867c-1.7674-.297-3.2496-1.5655-5.1519-1.7937v.163c1.4886.2701 3.001 1.5791 4.1215 2.446 3.2669 2.5275 5.6099 4.7767 5.5384 11.5776h.1288c2.3312-4.9859 5.7971-7.4521 10.8191-9.1316 1.4812-.4951 3.8545-.4765 5.6671-.4892.8453-.0061 3.1969.2097 4.6368.9784 4.0908 2.1839 6.7855 6.3574 7.8567 12.3929.7871 4.4354-1.8638 9.938-3.0912 12.0668-1.4976 2.5978-3.6255 4.6097-5.6671 6.5226-1.2179 1.1414-2.3579 2.64-3.6064 3.7505-3.8409 3.4162-7.8725 6.3719-11.7207 9.7839-1.1007.9759-2.1467 2.2643-3.2199 3.2613-.6257.5811-1.4702 1.0216-1.932 1.7937-.5966.9974-1.1807 3.5372-2.3184 3.7505l-.1288-.4892c-.466-.9668-.1432-2.4936-.3864-3.7505-.1603-.7839-.3758-1.5479-.644-2.2829-.4706.1586-.5152.3649-1.0304.4892-.7238-1.5731-1.2155-3.5827-2.0608-5.055-1.1205-1.9518-5.0679-4.3898-6.8263-5.8704-5.0199-4.2271-11.2932-9.7764-14.4255-16.3065-.853-1.7783-1.1442-4.0277-1.5456-6.3595-.4678-2.7186.1932-6.1092.644-7.9902 1.6018-6.6833 4.0756-11.2903 9.6599-12.8821h2.3184c3.22-.8452 7.0849-.1019 9.4023 1.1415.9637.517 2.6791.9542 2.9624 2.2829zm-9.9175-2.6091c-.152.1305-.2165.1261-.5152.1631v.1631h.1288c.1674.143.3178.1457.644.163l.2576-.3261v-.1631zm.2576 4.0767c-.6392.014-2.2262.482-2.7048.6522-1.747.6215-3.78 1.9049-4.7655 3.5874-2.9135 4.9735-3.2181 12.1115-.2576 17.448 1.2901 2.3256 3.4724 5.6994 5.2807 7.3379 1.2659 1.1468 2.6275 1.9501 3.864 3.0982 1.2493 1.1601 2.357 2.7532 3.6064 3.9136 1.553 1.4421 3.3677 2.9515 4.5079 4.8919 1.3138 2.2366 1.9254 4.8183 2.8336 7.6641h.2576c.4836-.8855 1.3327-1.5242 1.932-2.2829l3.2199-4.2397c1.3575-1.2796 2.7505-2.34 4.1216-3.5874 3.0672-2.7909 5.7739-6.2811 8.7583-9.1317 2.5088-2.3962 4.7098-5.2485 6.1824-8.9685.36-.9095 1.1076-3.0117.7728-4.5659-.2408-1.1178-.952-2.2503-1.288-3.2613-.2147-.9783-.4294-1.9567-.644-2.9351-.6246-1.7714-2.5374-2.5476-4.1216-3.0983-.8533-.2966-2.6495.0033-3.0912-.8153l.1288-.163 2.576-.4892v-.1631c-4.5306-.8869-7.4734 1.2324-10.9479 3.0982-.93.4995-3.5253 1.7665-4.3791 2.446-.6183.4921-1.194 1.2517-1.6744 1.9568-.1803.2655-1.071-.0038-1.4168.6522-.3528.6686-.7841 2.1199-1.0304 2.7721h-.2576c-.5142-10.7785-4.0346-15.5563-11.4631-15.8172zm-39.54124 1.7937c.50424 1.4418 1.50102 4.044 2.70477 4.5658v-.1631c-1.12699-1.1263-1.53889-3.3614-2.70477-4.4027zm43.27644.3261c1.9675.5197 3.001 2.0709 4.3791 3.2613v.3261c-1.3741 1.1317-2.4259 3.0004-3.7351 4.2397-2.4054 2.2769-4.8042 4.3865-7.3416 6.5226-1.1483.9671-2.9687 3.2302-4.3791 3.5874-.3844-1.5828-1.1931-2.8096-1.288-4.8919 2.2153-1.6307 3.9826-4.188 6.0535-6.0334 1.9976-1.7799 5.474-3.9605 6.3112-7.0118zm30.7829 4.2397c.2147.316.1853.272.644.3261v-.1631l-.1288-.163zm-35.9349 5.3811-.1288.3262c.2246-.2283.1288-.3262.1288-.3262zm-.3864.3262-.1288.3261c.2246-.2283.1288-.3261.1288-.3261zm-11.0767 7.3379c.28 1.4923 1.2771 3.4907 2.1896 4.2397v-.3262c-.8385-1.1406-1.1691-3.0133-2.1896-3.9135zm49.8452 4.7288c-.604 1.5218-1.8697 2.6389-2.3184 4.2397h.1288c.342-.6395 2.54-3.6016 2.1896-4.2397z" fill="#000" fill-rule="evenodd"/></g></svg>

<svg width="89" height="83" viewBox="0 0 89 83" fill="none" xmlns="http://www.w3.org/2000/svg">
<g id="PngItem_113464 1" clip-path="url(#clip0_14_32)">
<path id="Color Fill 1" fill-rule="evenodd" clip-rule="evenodd" d="M31.1693 53.9744L31.6845 51.8546H31.9421C32.2592 53.1341 32.9644 53.5452 33.4877 54.6267C33.4303 54.6127 33.2796 54.6373 33.2301 54.6267C33.1906 54.6159 32.9357 54.4829 32.8437 54.4636C32.4979 56.2484 32.0347 58.4269 31.9421 60.6601C31.6728 60.8429 31.7062 60.8939 31.2981 60.9862C29.8332 56.0268 25.7533 53.3086 21.5094 49.7347C18.4955 47.1966 16.7329 45.7343 13.7815 43.0491C12.7972 42.1537 9.29414 38.9806 8.37194 37.9941C5.22654 34.6287 1.75103 31.5576 0.722574 25.3153C0.0386524 21.1669 0.54934 17.194 1.932 14.5127C3.88871 10.7182 6.00088 8.4327 9.91752 7.17481C10.2229 6.83678 13.2663 6.57685 14.0391 6.52255C15.8552 6.58778 17.2137 6.71954 18.6758 7.17481C19.9208 7.60954 21.4236 8.37073 22.6686 8.80546C24.7563 10.4198 25.7202 11.0978 27.3054 13.2082C27.9751 14.1002 28.5878 15.2967 29.3661 16.3064C29.3738 14.6707 29.4598 13.037 29.6237 11.4145C29.9218 9.99323 30.9156 8.32736 31.6948 7.44403C33.6594 5.21689 36.1292 3.07862 38.8973 2.28287V2.1198C37.7315 2.29412 34.4646 4.05881 33.8741 3.75045L33.7453 3.58739C35.4214 2.31907 36.5435 1.48385 38.7531 0.875293C40.636 0.356257 43.4032 0.239992 46.11 0.32609C47.1029 0.329351 48.0939 0.438446 49.0724 0.65222C49.8741 0.855888 50.6528 1.18452 51.3907 1.63061C57.4068 5.11384 60.8982 17.7969 57.3155 27.3949H57.0579C56.8246 26.979 56.5789 26.9415 56.4139 26.4165C56.7414 26.1701 57.0366 25.9338 57.1867 25.4381C56.7903 25.2801 53.2583 22.5476 53.1939 22.1768C53.8297 19.5389 53.6613 15.9819 52.9363 13.5343C52.4083 11.7509 51.1129 9.36151 49.974 8.31627C47.3917 5.94628 42.5881 4.41559 38.7685 6.35949C35.7836 7.8786 33.6021 10.4929 32.5861 14.5127C32.2512 15.8388 32.4007 20.6353 31.6845 21.1984C31.6845 21.0896 31.2981 20.0026 31.2981 19.8939C30.9173 19.1651 30.9331 19.0614 30.6541 18.4263C29.1677 17.775 29.6386 18.1145 29.2374 17.774L27.6918 15.8172C26.6015 15.2123 23.1373 13.4605 22.411 13.0451C20.1957 11.7786 20.0483 11.7473 17.5167 10.5992C16.5268 10.1503 12.9958 9.7377 12.1071 10.4361C13.0312 10.487 14.2122 10.7084 14.9407 11.0884V11.4145C12.5314 11.4228 9.9295 12.3011 8.50074 13.6974C7.67359 14.5057 7.38482 16.1086 6.95515 17.4479C6.61615 18.5042 6.18699 19.7849 5.92476 20.8723C5.4549 22.8202 6.60005 26.4099 7.08395 27.3949C8.47382 30.2234 10.7934 32.9064 12.8799 34.8958C14.0885 36.0487 15.1328 37.6619 16.3575 38.8094C19.283 41.5507 22.1288 44.2509 25.1158 46.9626C26.633 48.34 29.5613 53.5597 31.1693 53.9744ZM43.2764 1.30448V1.63061L44.0492 1.79367L44.178 1.63061V1.46754L43.2764 1.30448ZM8.37194 11.7406V12.0668C8.54955 12.0484 8.72359 11.9933 8.88713 11.9037V11.7406H8.37194ZM55.3835 25.9273C53.6161 25.6303 52.1339 24.3618 50.2316 24.1336V24.2966C51.7202 24.5667 53.2326 25.8757 54.3531 26.7426C57.62 29.2701 59.963 31.5193 59.8915 38.3202H60.0203C62.3515 33.3343 65.8174 30.8681 70.8394 29.1886C72.3206 28.6935 74.6939 28.7121 76.5065 28.6994C77.3518 28.6933 79.7034 28.9091 81.1433 29.6778C85.2341 31.8617 87.9288 36.0352 89 42.0707C89.7871 46.5061 87.1362 52.0087 85.9088 54.1375C84.4112 56.7353 82.2833 58.7472 80.2417 60.6601C79.0238 61.8015 77.8838 63.3001 76.6353 64.4106C72.7944 67.8268 68.7628 70.7825 64.9146 74.1945C63.8139 75.1704 62.7679 76.4588 61.6947 77.4558C61.069 78.0369 60.2245 78.4774 59.7627 79.2495C59.1661 80.2469 58.582 82.7867 57.4443 83L57.3155 82.5108C56.8495 81.544 57.1723 80.0172 56.9291 78.7603C56.7688 77.9764 56.5533 77.2124 56.2851 76.4774C55.8145 76.636 55.7699 76.8423 55.2547 76.9666C54.5309 75.3935 54.0392 73.3839 53.1939 71.9116C52.0734 69.9598 48.126 67.5218 46.3676 66.0412C41.3477 61.8141 35.0744 56.2648 31.9421 49.7347C31.0891 47.9564 30.7979 45.707 30.3965 43.3752C29.9287 40.6566 30.5897 37.266 31.0405 35.385C32.6423 28.7017 35.1161 24.0947 40.7004 22.5029H43.0188C46.2388 21.6577 50.1037 22.401 52.4211 23.6444C53.3848 24.1614 55.1002 24.5986 55.3835 25.9273ZM45.466 23.3182C45.314 23.4487 45.2495 23.4443 44.9508 23.4813V23.6444H45.0796C45.247 23.7874 45.3974 23.7901 45.7236 23.8074L45.9812 23.4813V23.3182H45.466ZM45.7236 27.3949C45.0844 27.4089 43.4974 27.8769 43.0188 28.0471C41.2718 28.6686 39.2388 29.952 38.2533 31.6345C35.3398 36.608 35.0352 43.746 37.9957 49.0825C39.2858 51.4081 41.4681 54.7819 43.2764 56.4204C44.5423 57.5672 45.9039 58.3705 47.1404 59.5186C48.3897 60.6787 49.4974 62.2718 50.7468 63.4322C52.2998 64.8743 54.1145 66.3837 55.2547 68.3241C56.5685 70.5607 57.1801 73.1424 58.0883 75.9882H58.3459C58.8295 75.1027 59.6786 74.464 60.2779 73.7053L63.4978 69.4656C64.8553 68.186 66.2483 67.1256 67.6194 65.8782C70.6866 63.0873 73.3933 59.5971 76.3777 56.7465C78.8865 54.3503 81.0875 51.498 82.5601 47.778C82.9201 46.8685 83.6677 44.7663 83.3329 43.2121C83.0921 42.0943 82.3809 40.9618 82.0449 39.9508C81.8302 38.9725 81.6155 37.9941 81.4009 37.0157C80.7763 35.2443 78.8635 34.4681 77.2793 33.9174C76.426 33.6208 74.6298 33.9207 74.1881 33.1021L74.3169 32.9391L76.8929 32.4499V32.2868C72.3623 31.3999 69.4195 33.5192 65.945 35.385C65.015 35.8845 62.4197 37.1515 61.5659 37.831C60.9476 38.3231 60.3719 39.0827 59.8915 39.7878C59.7112 40.0533 58.8205 39.784 58.4747 40.44C58.1219 41.1086 57.6906 42.5599 57.4443 43.2121H57.1867C56.6725 32.4336 53.1521 27.6558 45.7236 27.3949ZM6.18236 29.1886C6.6866 30.6304 7.68338 33.2326 8.88713 33.7544V33.5913C7.76014 32.465 7.34824 30.2299 6.18236 29.1886ZM49.4588 29.5147C51.4263 30.0344 52.4598 31.5856 53.8379 32.776V33.1021C52.4638 34.2338 51.412 36.1025 50.1028 37.3418C47.6974 39.6187 45.2986 41.7283 42.7612 43.8644C41.6129 44.8315 39.7925 47.0946 38.3821 47.4518C37.9977 45.869 37.189 44.6422 37.0941 42.5599C39.3094 40.9292 41.0767 38.3719 43.1476 36.5265C45.1452 34.7466 48.6216 32.566 49.4588 29.5147ZM80.2417 33.7544C80.4564 34.0704 80.427 34.0264 80.8857 34.0805V33.9174L80.7569 33.7544H80.2417ZM44.3068 39.1355L44.178 39.4617C44.4026 39.2334 44.3068 39.1355 44.3068 39.1355ZM43.9204 39.4617L43.7916 39.7878C44.0162 39.5595 43.9204 39.4617 43.9204 39.4617ZM32.8437 46.7996C33.1237 48.2919 34.1208 50.2903 35.0333 51.0393V50.7131C34.1948 49.5725 33.8642 47.6998 32.8437 46.7996ZM82.6889 51.5284C82.0849 53.0502 80.8192 54.1673 80.3705 55.7681H80.4993C80.8413 55.1286 83.0393 52.1665 82.6889 51.5284Z" fill="black"/>
</g>
<defs>
<clipPath id="clip0_14_32">
<rect width="89" height="83" fill="white"/>
</clipPath>
</defs>
</svg>
